X:696
T:Mrs. E.M. Monair of Bruach 
C:Joe Buchanan's Scottish Tome - Page 221.2
I:221 2
C:Adam Rennie
R:Reel
Z:Carl Allison
L:1/8
M:4/4
K:G treble
D | G(D/G/) B(G/B/) | dG g2 | g/f/e/d/ c/B/A/G/ | FE E2 |
| A(E/A/) c(A/c/) | eA f>e | FG AB | ed B>D |
| G(D/G/) B(G/B/) | dG g2 | g/d/B/G/ FG | e3 e |
| f/f/f/f/ ed | EE E>G/ | F/G/A/B/ c/e/d/c/ | BG G>B |
| d(B/d/) g(f/g/) | ed d2 | d/B/G/B/ g/f/e/d/ | cA A>B |
| c(B/c/) A(A/B/) | c(B/c/) A>G | F/G/A/B/ c/A/f/e/ | dB B>c |
| d(B/d/) g(f/g/) | ed d2 | d/B/G/B/ g/f/e/d/ | cA A>B |
| cA fe | Dc E>G |1  F/G/A/B/ c/e/d/c/ | BG GD :|
%%leftmargin 8.6cm
|[2 F/G/A/B/ c/d/e/f/ | d |  [Bg]4 |]

